svgs/sharp-regular/disc-drive.svg

<svg xmlns="http://www.w3.org/2000/svg" viewBox="0 0 512 512"><!--! Font Awesome Pro 6.6.0 by @fontawesome - https://fontawesome.com License - https://fontawesome.com/license (Commercial License) Copyright 2024 Fonticons, Inc. --><path d="M56 32L32 32l0 24 0 376-8 0L0 432l0 48 24 0 32 0 400 0 32 0 24 0 0-48-24 0-8 0 0-376 0-24-24 0L56 32zM432 80l0 352L80 432 80 80l352 0zM400 256a144 144 0 1 0 -288 0 144 144 0 1 0 288 0zm-176 0a32 32 0 1 1 64 0 32 32 0 1 1 -64 0z"/></svg>

<svg xmlns="http://www.w3.org/2000/svg" viewBox="0 0 512 512"><!--! Font Awesome Pro 6.4.0 by @fontawesome - https://fontawesome.com License - https://fontawesome.com/license (Commercial License) Copyright 2023 Fonticons, Inc. --><path d="M56 32H32V56 432H24 0v48H24 56 456h32 24V432H488h-8V56 32H456 56zM432 80V432H80V80H432zM400 256a144 144 0 1 0 -288 0 144 144 0 1 0 288 0zm-176 0a32 32 0 1 1 64 0 32 32 0 1 1 -64 0z"/></svg>
